X:240
T: Renmin de jiefang
N: C1733
O: China,Liaoning Chifeng
S: III, 222]
R: Xiaodiao]
M: 2/4
L: 1/16
K: Bb
c2c2d2f2 | g8 |
c2c2d2f2 | g8 |
c2c2b2c2 | d2f2d4 | c8- | c8 |
b2d2c2a2 | g6a2 |
c2c2d2f2 | g8 |
c2c2b2c2 | b2c2f2d2 | c8- | c8 |
d2g2f2d2 | c2f2d2c2 | b2g2b2d2 | c8 |
f2d2c4 | a2g2f4 |
g2c2b2g2 | f4g2g2 | b2d2c4 |
z8 | c2c2f2d2 | c8- | c8

@@@ Tune index: 6795
